X: 19267
T: Ivory Flute, The
R: jig
M: 6/8
K: Dmajor
|:F|ABA D3|BAF AFE|D3 BAF|AFE E2F|
ABA D3|BAF ABd|D3 BAF|AFE E2F:|
|:ABd e2f|edB ABd|D3 D3|BAF AFE|
ABd e2f|edB ABd|D3 BAF|AFE E2F:|

